X:1
T:Der frohe Wandersmann
T:Der frohe Wandersmann
T:Felix Mendelssohn Bartholdy
T:Eichendorff
C:Felix Mendelssohn Bartholdy
Z:Eichendorff
%%score [ 1 2 3 ( 4 5 ) ]
L:1/8
Q:1/4=92
M:3/4
K:E
V:1 treble-8 nm="Tenor 1"
V:2 treble-8 nm="Tenor 2"
V:3 bass nm="Baryton"
V:4 bass nm="Bass"
V:5 bass 
V:1
!f!"^Andante" B2 | e3/2 B/ c B e d | g2 e2!p! B2 | (.B .g .f .e .d .c) | B4 B2 | %5
w: 1.Wem|Gott will rech- te Gunst er-|wei- sen, den|schickt er in die wei- te|Welt; dem|
w: 2.Die|Bäch- lein von den Ber- gen|sprin- gen, die|Ler- chen schwir- ren hoch vor|Lust, was|
 B B"^cresc." c B e3/2 f/ | e2 d2 B2 | B G E e!<(! e3/2 ^B/!<)! | ^B2 c2 z2 | z6 | %10
w: will er sei- ne Wun- der|wei- sen, dem|will er sei- ne Wun- der|wei- sen||
w: sollt' ich nicht mit ih- nen|sin- gen, was|sollt' ich nicht mit ihn- en|sin- gen||
 z2!f! z f f3/2 f/ | f3 f g3/2 f/ | !fermata!f3 g f e | d2 e2 d c | c2 B B c B | e (g/f/) e2 d2 | %16
w: in Berg und|Wald und Strom und|Feld, dem will er|sei- ne Wun- der|wei- sen in Berg und|Wald und * Strom und|
w: aus vol- ler|Kehl' und frisch- er|Brust, was sollt' ich|nicht mit ihn- en|sin- gen aus vol- ler|Kehl' und * frisch- er|
 !fermata!e4 :|[M:4/4]!ff! B e f | g2"^rit." f2 e2 f2 | d2 !fermata!B4!p!"^a tempo" B2 || %20
w: Feld.|3.Den lie- ben|Gott lass ich nur|wal- ten; der|
w: Brust?||||
[M:3/4] (.B .g .f .e .d .c) | B4 B2 | B"^cresc." B c B e3/2 f/ | e2 d2 B2 | %24
w: Bach- lein, Ler- chen, Wald und|Feld und|Erd' und Him- mel will er-|hal- ten, und|
w: ||||
 B G E!<(! e e3/2 ^B/!<)! | ^B2 c2 z2 | z6 | z2!f! z f f3/2 f/ | f3!<(! f f3/2 f/!<)! | %29
w: Erd' und Him- mel will er-|hal- ten,||hat auch mein'|Sach' auf's best' be-|
w: |||||
 !fermata!f3!ff! B B B | a2 g2 f e | (d>c) B B c B | e (g/f/) e2 d2 | e6- | e6- | %35
w: stellt, der Erd' und|Him- mel will er-|hal- * ten, hat auch mein'|Sach' auf's * best' be-|stellt,|_|
w: ||||||
 e"^cresc." B e4- | e!f! B g2 f2 | !fermata!e4 |] %38
w: * mein' Sach'|_ auf's best' be-|stellt!|
w: |||
V:2
!f! B2 | B3/2 B/ c B B A | G2 B2!p! B2 | (.B .e .d .B .A .A) | A4 A2 | G G"^cresc." ^A B B3/2 B/ | %6
w: 1.Wem|Gott will rech- te Gunst er-|wei- sen, den|schickt er in die wei- te|Welt; dem|will er sei- ne Wun- der|
w: 2.Die|Bäch- lein von den Ber- gen|sprin- gen, die|Ler- chen schwir- ren hoch vor|Lust, was|sollt' ich nicht mit ih- nen|
 ^A2 B2 B2 | B B ^B B!<(! B3/2 B/!<)! | ^B2 c2 z2 | z2!f! z e e3/2 e/ | e6- | e3 e e3/2 e/ | %12
w: wei- sen, dem|will er sei- ne Wun- der|wei- sen|in Berg und|Wald|_ und Strom und|
w: sin- gen, was|sollt' ich nicht mit ihn- en|sin- gen|aus vol- ler|Kehl'|_ und frisch- er|
 !fermata!e3 e d c | d2 B2 B ^A | ^A2 B =A G B | c c B2 A2 | !fermata!G4 :|[M:4/4]!ff! B B e | %18
w: Feld, dem will er|sei- ne Wun- der|wei- sen in Berg und|Wald und Strom und|Feld.|3.Den lie- ben|
w: Brust, was sollt' ich|nicht mit ihn- en|sin- gen aus vol- ler|Kehl' und frisch- er|Brust?||
 e2"^rit." d2 c2 c2 | B2 !fermata!F4!p!"^a tempo" B2 ||[M:3/4] (.B .e .d .c .A .A) | A4 A2 | %22
w: Gott lass ich nur|wal- ten; der|Bach- lein, Ler- chen, Wald und|Feld und|
w: ||||
 G"^cresc." B ^A B B3/2 B/ | ^A2 B2 B2 | B B ^B!<(! B B3/2 B/!<)! | ^B2 c2 z2 | z2!f! z e e3/2 e/ | %27
w: Erd' und Him- mel will er-|hal- ten, und|Erd' und Him- mel will er-|hal- ten,|hat auch mein'|
w: |||||
 e6- | e3!<(! e e3/2 e/!<)! | !fermata!d3!ff! B B B | d2 e2 c c | (B>^A) B =A G B | c c B2 A2 | %33
w: Sach'|_ auf's best' be-|stellt, der Erd' und|Him- mel will er-|hal- * ten, hat auch mein'|Sach' auf's best' be-|
w: ||||||
 G3!p! e d c | B3 c B A | G3 A G c | (B2 e2) d2 | !fermata!B4 |] %38
w: stellt, hat auch mein'|Sach' auf's best' be-|stellt, mein' Sach' auf's|best' * be-|stellt!|
w: |||||
V:3
!f! G,2 | G,3/2 G,/ A, G, G, F, | B,2 G,2!p! G,2 | (.G, .B, .A, .G, .F, .E,) | (D,2 E,2) F,2 | %5
w: 1.Wem|Gott will rech- te Gunst er-|wei- sen, den|schickt er in die wei- te|Welt; * dem|
w: 2.Die|Bäch- lein von den Ber- gen|sprin- gen, die|Ler- chen schwir- ren hoch vor|Lust, * was|
 G, G,"^cresc." F, F, G,3/2 G,/ | F,2 F,2 D,2 | E, E, E, E,!<(! E,3/2 E,/!<)! | %8
w: will er sei- ne Wun- der|wei- sen, dem|will er sei- ne Wun- der|
w: sollt' ich nicht mit ih- nen|sin- gen, was|sollt' ich nicht mit ihn- en|
 E,2!f! E, C C3/2 C/ | C6- | C6- | C3 C C3/2 C/ | !fermata!C3 ^A, B, C | B,2 B,2 B, F, | %14
w: wei- sen in Berg und|Wald|_|* und Strom und|Feld, dem will er|sei- ne Wun- der|
w: sin- gen aus vol- ler|Kehl'|_|* und frisch- er|Brust, was sollt' ich|nicht mit ihn- en|
 F,2 F, F, E, F, | G, A, G,2 B,2 | !fermata!B,4 :|[M:4/4]!ff! G, G, A, | B,2"^rit." A,2 G,2 F,2 | %19
w: wei- sen in Berg und|Wald und Strom und|Feld.|3.Den lie- ben|Gott lass ich nur|
w: sin- gen aus vol- ler|Kehl' und frisch- er|Brust?|||
 F,2 !fermata!D,4!p!"^a tempo" A,2 ||[M:3/4] (.G, .B, .A, .G, .F, .E,) | (D,2 E,2) F,2 | %22
w: wal- ten; der|Bach- lein, Ler- chen, Wald und|Feld * und|
w: |||
 G,"^cresc." G, F, F, G,3/2 G,/ | F,2 F,2 D,2 | E, E, E,!<(! E, E,3/2 E,/!<)! | %25
w: Erd' und Him- mel will er-|hal- ten, und|Erd' und Him- mel will er-|
w: |||
 E,2!f! E, C C3/2 C/ | C6- | C3 =C C3/2 C/ | =C3!<(! C C3/2 C/!<)! | !fermata!B,3!ff! B, B, B, | %30
w: hal- ten, hat auch mein'|Sach'|_ hat auch mein'|Sach' auf's best' be-|stellt, der Erd' und|
w: |||||
 B,2 B,2 A, F, | F,2 F, F, E, F, | G, A, G,2 B,2 | B,3!p! C B, A, | G,3 E, D, C, | B,,3 E, E, F, | %36
w: Him- mel will er-|hal- ten, hat auch mein'|Sach' auf's best' be-|stellt, hat auch mein'|Sach' auf's best' be-|stellt, mein' Sach' auf's|
w: ||||||
 (G,2 B,2) A,2 | !fermata!G,4 |] %38
w: best' * be-|stellt!|
w: ||
V:4
!f! E,2 | E,3/2 E,/ E, E, E, E, | E,2 E,2!p! G,2 | (.B,, .B,, .B,, .B,, .B,, .B,,) | %4
w: 1.Wem|Gott will rech- te Gunst er-|wei- sen, den|schickt er in die wei- te|
w: 2.Die|Bäch- lein von den Ber- gen|sprin- gen, die|Ler- chen schwir- ren hoch vor|
 (B,,2 C,2) D,2 | E, E,"^cresc." E, D, C,3/2 C,/ | C,2 B,,2 A,,2 | %7
w: Welt; * dem|will er sei- ne Wun- der|wei- sen, dem|
w: Lust, * was|sollt' ich nicht mit ih- nen|sin- gen, was|
 G,, G,, G,, G,,!<(! G,,3/2 G,,/!<)! | G,,2!f! A,, A, A,3/2 A,/ | A,6- | A,6- | A,3 ^A, B,3/2 A,/ | %12
w: will er sei- ne Wun- der|wei- sen in Berg und|Wald|_|* und Strom und|
w: sollt' ich nicht mit ihn- en|sin- gen aus vol- ler|Kehl'|_|* und frisch- er|
 !fermata!^A,3 F, G, A, | B,2 G,2 F, E, | E,2 D, D, E, D, | C, A,, B,,2 B,,2 | !fermata!E,4 :| %17
w: Feld, dem will er|sei- ne Wun- der|wei- sen in Berg und|Wald und Strom und|Feld.|
w: Brust, was sollt' ich|nicht mit ihn- en|sin- gen aus vol- ler|Kehl' und frisch- er|Brust?|
[M:4/4]!ff! E,, E, E, | E,2"^rit." B,,2 C,2 A,,2 | B,,2 !fermata!B,,4!p!"^a tempo" B,,2 || %20
w: 3.Den lie- ben|Gott lass ich nur|wal- ten; der|
w: |||
[M:3/4] (.B,, .B,, .B,, .B,, .B,, .B,,) | (B,,2 C,2) D,2 | E,"^cresc." E, E, D, C,3/2 C,/ | %23
w: Bach- lein, Ler- chen, Wald und|Feld * und|Erd' und Him- mel will er-|
w: |||
 C,2 B,,2 A,,2 | G,, G,, G,,!<(! G,, G,,3/2 G,,/!<)! | G,,2!f! A,, A, A,3/2 A,/ | A,6- | %27
w: hal- ten, und|Erd' und Him- mel will er-|hal- ten, hat auch mein'|Sach'|
w: ||||
 A,3 A, A,3/2 A,/ | A,3!<(! A, A,3/2 A,/!<)! | !fermata!A,3!ff! B, B, B, | F,2 G,2 A,, ^A,, | %31
w: _ hat auch mein'|Sach' auf's best' be-|stellt, der Erd' und|Him- mel will er-|
w: ||||
 (B,,>C,) D, D, E, D, | C, A,, B,,2 B,,2 | E,6- | E,6- | E,3 C, B,, ^A,, | B,,4 B,,2 | %37
w: hal- * ten, hat auch mein'|Sach' auf's best' be-|stellt,|_|* mein' Sach' auf's|best' be-|
w: ||||||
 !fermata!E,4 |] %38
w: stellt!|
w: |
V:5
 x2 | x6 | x6 | x6 | x6 | x6 | x6 | x6 | x6 | x6 | x6 | x6 | x6 | x6 | x6 | x6 | E,,4 :| %17
[M:4/4] x3 | x8 | x8 ||[M:3/4] x6 | x6 | x6 | x6 | x6 | x6 | x6 | x6 | x6 | x6 | x6 | x6 | x6 | %33
 E,,6- | E,,6- | E,,3 x3 | x6 | E,,4 |] %38

